icons/brand/icon_bank-uralskiy_xl_color.svg

<svg width="36" height="36" viewBox="0 0 36 36" xmlns="http://www.w3.org/2000/svg">
  <g fill-rule="nonzero" fill="none">
    <path d="M5.25 24.434c-.472-.826-.826-1.77-.826-2.833V10.033C2.89 10.386 1.708 11.448 1 12.747v7.32c.935 1.857 2.42 3.382 4.25 4.367" fill="#D4132F"/>
    <path d="M5.84 8.615h3.423c.944 0 1.77-.826 1.77-1.77 0-.946-.825-1.654-1.77-1.654H5.84C3.125 5.193 1 7.318 1 10.033v1.535c.826-1.77 2.715-2.952 4.84-2.952M25.08 5.192h-8.734l3.542 3.423h5.666c2.48 0 4.958 1.063 6.846 2.715-.708-3.54-3.66-6.138-7.32-6.138z" fill="#B10540"/>
    <path d="M16.346 5.192V21.6c0 3.187-2.715 5.784-5.902 5.784-3.777 0-7.555-2.125-9.444-5.666.118 4.958 4.25 9.09 9.444 9.09 5.194 0 9.444-4.132 9.444-9.208V8.615l-3.542-3.423z" fill="#2865A7"/>
    <path d="M32.046 15.226c.354-.944.472-2.125.472-2.715-1.062-.943-2.597-1.888-4.25-2.36.472.59.826 1.653.826 2.48 0 .825-.236 1.534-.708 2.36-.472.708-.472 1.653.354 2.125 1.535.826 2.597 2.36 2.715 4.014.125 1.276-.164 2.56-.826 3.658 1.888-.944 3.422-2.48 4.25-4.25-.237-1.89-1.063-3.66-2.834-5.312" fill="#D4132F"/>
    <path d="M26.38 27.267h-5.548c-.944 0-1.77.826-1.77 1.77 0 .945.825 1.772 1.77 1.772h5.548c4.722 0 8.735-4.015 8.617-8.973-1.18 3.07-4.367 5.43-8.617 5.43" fill="#B10540"/>
  </g>
</svg>

<?xml version="1.0" encoding="UTF-8"?>
<svg width="36px" height="36px" viewBox="0 0 36 36" version="1.1" xmlns="http://www.w3.org/2000/svg" xmlns:xlink="http://www.w3.org/1999/xlink">
    <!-- Generator: Sketch 47.1 (45422) - http://www.bohemiancoding.com/sketch -->
    <title>icon_bank-uralskiy_xl_color</title>
    <desc>Created with Sketch.</desc>
    <defs></defs>
    <g id="Page-1" stroke="none" stroke-width="1" fill="none" fill-rule="evenodd">
        <g id="icon_bank-uralskiy_xl_color">
            <g>
                <rect id="_ph_" fill="#940449" opacity="0" x="0" y="0" width="36" height="36"></rect>
                <path d="M5.25,24.434 C4.778,23.608 4.424,22.663 4.424,21.601 L4.424,10.032 C2.889,10.386 1.708,11.448 1,12.747 L1,20.066 C1.93471868,21.9237333 3.41855522,23.4487681 5.25,24.434" id="Shape" fill="#D4132F" fill-rule="nonzero"></path>
                <path d="M5.84,8.615 L9.263,8.615 C10.207,8.615 11.034,7.789 11.034,6.844 C11.034,5.899 10.208,5.191 9.263,5.191 L5.84,5.191 C3.125,5.192 1,7.317 1,10.032 L1,11.567 C1.826,9.796 3.715,8.615 5.84,8.615" id="Shape" fill="#B10540" fill-rule="nonzero"></path>
                <path d="M25.081,5.192 L16.346,5.192 L19.888,8.615 L25.554,8.615 C28.033,8.615 30.512,9.678 32.4,11.33 C31.692,7.789 28.741,5.192 25.081,5.192 Z" id="Shape" fill="#B10540" fill-rule="nonzero"></path>
                <path d="M16.346,5.192 L16.346,21.6 C16.346,24.787 13.631,27.384 10.444,27.384 C6.667,27.384 2.889,25.259 1,21.718 C1.118,26.676 5.25,30.808 10.444,30.808 C15.638,30.808 19.888,26.676 19.888,21.6 L19.888,8.615 L16.346,5.192 Z" id="Shape" fill="#2865A7" fill-rule="nonzero"></path>
                <path d="M32.046,15.226 C32.4,14.282 32.518,13.101 32.518,12.511 C31.456,11.567 29.921,10.622 28.268,10.15 C28.74,10.74 29.094,11.803 29.094,12.629 C29.094,13.455 28.858,14.164 28.386,14.99 C27.914,15.698 27.914,16.643 28.74,17.115 C30.275,17.941 31.337,19.476 31.455,21.129 C31.5803003,22.4057566 31.2906395,23.6888909 30.629,24.788 C32.518,23.844 34.052,22.309 34.879,20.538 C34.643,18.649 33.817,16.879 32.046,15.226" id="Shape" fill="#D4132F" fill-rule="nonzero"></path>
                <path d="M26.38,27.267 L20.832,27.267 C19.888,27.267 19.061,28.093 19.061,29.038 C19.061,29.982 19.887,30.809 20.832,30.809 L26.38,30.809 C31.102,30.809 35.115,26.795 34.997,21.837 C33.817,24.906 30.63,27.267 26.38,27.267" id="Shape" fill="#B10540" fill-rule="nonzero"></path>
            </g>
        </g>
    </g>
</svg>
